dist/images/icons/vk-footer.svg

<svg width="33" height="34" viewBox="0 0 33 34" fill="none" xmlns="http://www.w3.org/2000/svg">
<path d="M16.5 0.183594C7.40204 0.183594 0 7.56228 0 16.6315C0 25.7008 7.40204 33.0795 16.5 33.0795C25.5987 33.0795 33 25.7008 33 16.6315C33 7.56228 25.5987 0.183594 16.5 0.183594ZM23.6545 19.8746C25.2593 21.2949 25.5929 21.8019 25.6475 21.8884C26.3125 22.9397 24.91 23.0677 24.91 23.0677H21.9543C21.9543 23.0677 21.2348 23.0756 20.62 22.6694C19.6178 22.015 18.5682 20.7464 17.8308 20.9666C17.2117 21.1511 17.2174 21.985 17.2174 22.698C17.2174 22.9533 16.9972 23.0677 16.5 23.0677C16.0028 23.0677 15.7962 23.0677 15.576 23.0677C13.9568 23.0677 12.2 22.5242 10.4474 20.6985C7.96807 18.1176 5.79365 12.9186 5.79365 12.9186C5.79365 12.9186 5.66524 12.6569 5.80513 12.4974C5.96367 12.3186 6.39483 12.3415 6.39483 12.3415L9.26081 12.3408C9.26081 12.3408 9.53054 12.3915 9.72424 12.5274C9.88422 12.639 9.97317 12.8521 9.97317 12.8521C9.97317 12.8521 10.4545 14.4368 11.0679 15.4473C12.266 17.4196 12.8234 17.4697 13.2301 17.2573C13.8241 16.9498 13.6304 14.853 13.6304 14.853C13.6304 14.853 13.657 13.9527 13.3471 13.5515C13.1082 13.2411 12.6512 13.0759 12.4518 13.0502C12.2903 13.0294 12.5601 12.7477 12.9037 12.5868C13.3628 12.383 13.9877 12.3308 15.0652 12.3408C15.9038 12.3486 16.1456 12.3987 16.4727 12.4738C17.462 12.7012 17.2174 13.3012 17.2174 15.408C17.2174 16.083 17.1241 17.032 17.6349 17.3467C17.8552 17.4825 18.6098 17.6484 19.9528 15.4745C20.5906 14.4432 21.0978 12.7327 21.0978 12.7327C21.0978 12.7327 21.2025 12.5446 21.3653 12.4516C21.5318 12.3565 21.5268 12.3586 21.7549 12.3586C21.983 12.3586 24.2708 12.3408 24.773 12.3408C25.2744 12.3408 25.745 12.335 25.8261 12.6283C25.9423 13.0495 25.4559 14.4926 24.2234 16.0587C22.1982 18.6289 21.9737 18.3886 23.6545 19.8746Z" fill="white"/>
</svg>

<svg xmlns="http://www.w3.org/2000/svg" width="33" height="34" fill="none"><path fill="#fff" d="M16.5.184C7.402.184 0 7.562 0 16.63c0 9.07 7.402 16.449 16.5 16.449 9.099 0 16.5-7.38 16.5-16.448C33 7.561 25.599.183 16.5.183m7.154 19.69c1.605 1.42 1.939 1.928 1.994 2.014.665 1.052-.738 1.18-.738 1.18h-2.956s-.72.008-1.334-.399c-1.002-.654-2.052-1.923-2.79-1.702-.618.184-.613 1.018-.613 1.731 0 .255-.22.37-.717.37h-.924c-1.62 0-3.376-.544-5.129-2.37-2.479-2.58-4.653-7.78-4.653-7.78s-.129-.261.011-.42c.159-.18.59-.156.59-.156l2.866-.001s.27.05.463.186c.16.112.25.325.25.325s.48 1.585 1.094 2.595c1.198 1.973 1.755 2.023 2.162 1.81.594-.307.4-2.404.4-2.404s.027-.9-.283-1.301c-.239-.31-.696-.476-.895-.502-.162-.02.108-.302.452-.463.459-.204 1.084-.256 2.161-.246.839.008 1.08.058 1.408.133.989.227.744.827.744 2.934 0 .675-.093 1.624.418 1.939.22.136.975.301 2.318-1.873.638-1.03 1.145-2.741 1.145-2.741s.105-.188.267-.281c.167-.095.162-.093.39-.093s2.516-.018 3.018-.018.972-.006 1.053.287c.116.422-.37 1.865-1.603 3.43-2.025 2.57-2.25 2.33-.569 3.817"/></svg>
